X:4
T:Kadril van Kampenhout
T:Vierde figuur "Pastrel"
C:Trad.
O:Vlaanderen
Z:Bart Vanhaverbeke 
P:ABCABC
L:1/8
M:2/4
K:F
P:A
(3C/D/E/ | FF/F/ FA | cA FA | Gc/d/ cBAG | (A2 F) (3C/D/E/ | FF/F/ FA | cA FA | Gc de | f z F z |]
P:B
AA/G/ FA | cd c2 | AA/G/ FA | cd c2 | GG/A/ Bd | cf ed | c^c de | f z |]
P:C
K:Bb
F2 | (F4 | D) z d2 | (d4 | B) z d2 | e>d e>d | e2 f2 | (d4 | d) z F2 |
